X:255
T:Appelby Election Hornpipe
O:england
M:4/4
L:1/8
S:Armitt MS
K:D major
dB|AFDA, DA,FA,|EA,GA, BABc|dcdA  FdFD|E2[C2E2][C2E2]dB|AFDA, DA,FA,|EA,
GA BABc|dBBG|FDEC|D2D2D2:||:AG|FADE AFdF|GBEG BGed|cecf gfga|gfed dcBA|F
ADF GBEG|FADE CEA,G|FADc dfed|d2d2d2:||


